Numix/22/emotes/face-yawn.svg

<?xml version="1.0" encoding="UTF-8" standalone="no"?>
<svg
   xmlns:dc="http://purl.org/dc/elements/1.1/"
   xmlns:cc="http://creativecommons.org/ns#"
   xmlns:rdf="http://www.w3.org/1999/02/22-rdf-syntax-ns#"
   xmlns:svg="http://www.w3.org/2000/svg"
   xmlns="http://www.w3.org/2000/svg"
   xmlns:sodipodi="http://sodipodi.sourceforge.net/DTD/sodipodi-0.dtd"
   xmlns:inkscape="http://www.inkscape.org/namespaces/inkscape"
   width="22px"
   height="22px"
   viewBox="0 0 18 18"
   version="1.1"
   id="svg1672"
   inkscape:version="0.91 r"
   sodipodi:docname="face-yawn.svg">
  <metadata
     id="metadata1687">
    <rdf:RDF>
      <cc:Work
         rdf:about="">
        <dc:format>image/svg+xml</dc:format>
        <dc:type
           rdf:resource="http://purl.org/dc/dcmitype/StillImage" />
      </cc:Work>
    </rdf:RDF>
  </metadata>
  <defs
     id="defs1685" />
  <sodipodi:namedview
     pagecolor="#ffffff"
     bordercolor="#666666"
     borderopacity="1"
     objecttolerance="10"
     gridtolerance="10"
     guidetolerance="10"
     inkscape:pageopacity="0"
     inkscape:pageshadow="2"
     inkscape:window-width="640"
     inkscape:window-height="480"
     id="namedview1683" />
  <g
     id="surface1">
    <path
       style=" stroke:none;fill-rule:nonzero;fill:rgb(100%,85.490196%,36.862745%);fill-opacity:1;"
       d="M 15.75 9 C 15.75 12.210938 12.726562 14.8125 9 14.8125 C 5.273438 14.8125 2.25 12.210938 2.25 9 C 2.25 5.789062 5.273438 3.1875 9 3.1875 C 12.726562 3.1875 15.75 5.789062 15.75 9 Z M 15.75 9 "
       id="path1675" />
    <path
       style=" stroke:none;fill-rule:nonzero;fill:rgb(39.607843%,39.607843%,39.607843%);fill-opacity:1;"
       d="M 9.75 11.8125 C 9.75 10.878906 9.414062 10.125 9 10.125 C 8.585938 10.125 8.25 10.878906 8.25 11.8125 C 8.25 12.746094 8.585938 13.5 9 13.5 C 9.414062 13.5 9.75 12.746094 9.75 11.8125 Z M 9.75 11.8125 "
       id="path1677" />
    <path
       style=" stroke:none;fill-rule:nonzero;fill:rgb(39.607843%,39.607843%,39.607843%);fill-opacity:1;"
       d="M 5.4375 7.875 L 7.6875 7.875 C 7.792969 7.875 7.875 7.957031 7.875 8.0625 C 7.875 8.167969 7.792969 8.25 7.6875 8.25 L 5.4375 8.25 C 5.332031 8.25 5.25 8.167969 5.25 8.0625 C 5.25 7.957031 5.332031 7.875 5.4375 7.875 Z M 5.4375 7.875 "
       id="path1679" />
    <path
       style=" stroke:none;fill-rule:nonzero;fill:rgb(39.607843%,39.607843%,39.607843%);fill-opacity:1;"
       d="M 10.3125 7.875 L 12.5625 7.875 C 12.667969 7.875 12.75 7.957031 12.75 8.0625 C 12.75 8.167969 12.667969 8.25 12.5625 8.25 L 10.3125 8.25 C 10.207031 8.25 10.125 8.167969 10.125 8.0625 C 10.125 7.957031 10.207031 7.875 10.3125 7.875 Z M 10.3125 7.875 "
       id="path1681" />
  </g>
</svg>

<svg xmlns="http://www.w3.org/2000/svg" width="22" height="22" viewBox="0 0 18 18">
 <g>
  <path d="m 15.75 9 c 0 3.211 -3.02 5.813 -6.75 5.813 c -3.727 0 -6.75 -2.602 -6.75 -5.813 c 0 -3.211 3.02 -5.813 6.75 -5.813 c 3.727 0 6.75 2.602 6.75 5.813 m 0 0" style="fill:#ffd95d;fill-opacity:1;stroke:none;fill-rule:nonzero"/>
  <path d="m 9.75 11.813 c 0 -0.934 -0.336 -1.688 -0.75 -1.688 c -0.414 0 -0.75 0.754 -0.75 1.688 c 0 0.934 0.336 1.688 0.75 1.688 c 0.414 0 0.75 -0.754 0.75 -1.688 m 0 0" style="fill:#646464;fill-opacity:1;stroke:none;fill-rule:nonzero"/>
  <path d="m 5.438 7.875 l 2.25 0 c 0.105 0 0.188 0.082 0.188 0.188 c 0 0.105 -0.082 0.188 -0.188 0.188 l -2.25 0 c -0.105 0 -0.188 -0.082 -0.188 -0.188 c 0 -0.105 0.082 -0.188 0.188 -0.188 m 0 0" style="fill:#646464;fill-opacity:1;stroke:none;fill-rule:nonzero"/>
  <path d="m 10.313 7.875 l 2.25 0 c 0.105 0 0.188 0.082 0.188 0.188 c 0 0.105 -0.082 0.188 -0.188 0.188 l -2.25 0 c -0.105 0 -0.188 -0.082 -0.188 -0.188 c 0 -0.105 0.082 -0.188 0.188 -0.188 m 0 0" style="fill:#646464;fill-opacity:1;stroke:none;fill-rule:nonzero"/>
 </g>
</svg>
